X: 84
T: Mason's Apron
O: Ross 1780
N: In most old collections.
B: NEFR #84
B: Robert Ross "A Choice Collection of Scots Reels or Country Dances", 1780 as "The Mason Laddie"
B: Gow "Complete Repository", Part 2, 1802; pgs. 24-25
R: reel
M: C|
L: 1/8
Z: 1996 by John Chambers <jc:trillian.mit.edu>
K: A
ed \
| "A"c2 A2 AB AF | EF AB c2 BA | "Bm"d2 B2 Bc BA | "E7"Bc de f2 ed |
| "A"c2 A2 AB AF | "A"EF AB c2 BA | "D"Bc de fe fa | "E7"ed cB "A"A2 :|
|: ed \
| "A"cA eA fA eA | cA eA fe dc | "Bm"dB fB gB fB | dB fB "E7"gf ed |
| "A"cA eA fA eA | cA eA fe dc | "D"Bc de fe fa | "E7"AA cB "A"A2 :|


